public/images/currencies/honeyswap/32.svg

<svg width="32" height="32" viewBox="0 0 32 32" fill="none" xmlns="http://www.w3.org/2000/svg">
<g clip-path="url(#clip0_451:49418)">
<circle cx="16" cy="16" r="16" fill="white"/>
<path d="M23.5173 10.2191L17.1869 6.59423C16.8166 6.38132 16.3966 6.26994 15.9694 6.27131C15.5421 6.27269 15.1229 6.38679 14.7539 6.60208L8.44672 10.2706C8.0784 10.4856 7.77283 10.7933 7.56042 11.1631C7.34802 11.5329 7.23618 11.9519 7.23608 12.3783L7.26081 19.6761C7.26339 20.1034 7.37793 20.5226 7.59303 20.8919C7.80813 21.2611 8.11626 21.5675 8.48671 21.7806L14.8153 25.4045C15.1858 25.6177 15.6061 25.7294 16.0336 25.7282C16.4612 25.727 16.8808 25.6129 17.2502 25.3976L23.5592 21.728C23.9264 21.5114 24.2306 21.2026 24.4419 20.8323C24.6531 20.462 24.764 20.043 24.7636 19.6166L24.7387 12.319C24.7357 11.8929 24.6213 11.475 24.4071 11.1067C24.1929 10.7384 23.8862 10.4325 23.5173 10.2191Z" fill="#FFF19F"/>
<path d="M20.6461 12.4271L16.7336 10.1867C16.5046 10.0551 16.2451 9.98628 15.981 9.98713C15.717 9.98798 15.4578 10.0585 15.2298 10.1915L11.3317 12.4589C11.104 12.5918 10.9151 12.782 10.7838 13.0106C10.6526 13.2392 10.5835 13.4983 10.5835 13.7619L10.5988 18.2723C10.6002 18.5364 10.671 18.7956 10.8039 19.0239C10.9368 19.2523 11.1272 19.4417 11.3562 19.5734L15.2676 21.8133C15.4967 21.9451 15.7564 22.0141 16.0207 22.0133C16.2849 22.0126 16.5443 21.9421 16.7726 21.809L20.6718 19.541C20.8989 19.4071 21.087 19.2162 21.2176 18.9872C21.3481 18.7582 21.4166 18.4991 21.4163 18.2355L21.401 13.7251C21.3991 13.4618 21.3285 13.2034 21.1961 12.9758C21.0637 12.7481 20.8741 12.5589 20.6461 12.4271Z" fill="#FFDD0F"/>
<path d="M18.8715 13.7917L16.4533 12.407C16.3119 12.3257 16.1514 12.2832 15.9883 12.2837C15.8251 12.2842 15.665 12.3278 15.524 12.4101L13.1152 13.8115C12.9745 13.8936 12.8578 14.0111 12.7766 14.1524C12.6955 14.2937 12.6528 14.4538 12.6528 14.6167L12.6623 17.4043C12.6633 17.5675 12.707 17.7277 12.7892 17.8687C12.8713 18.0098 12.989 18.1268 13.1305 18.2082L15.5479 19.5924C15.6894 19.6739 15.8499 19.7166 16.0133 19.7161C16.1766 19.7157 16.3369 19.6721 16.4779 19.5899L18.8879 18.1881C19.0282 18.1054 19.1444 17.9874 19.2251 17.846C19.3058 17.7045 19.3482 17.5445 19.3481 17.3816L19.3386 14.594C19.3374 14.4312 19.2936 14.2715 19.2117 14.1307C19.1298 13.99 19.0125 13.8731 18.8715 13.7917Z" fill="#FFDD0F"/>
<path d="M43.0222 10.1527L36.6918 6.52788C36.3214 6.31496 35.9014 6.20355 35.4742 6.20491C35.047 6.20627 34.6277 6.32034 34.2587 6.53562L27.9515 10.2043C27.5831 10.4193 27.2775 10.7271 27.0651 11.097C26.8527 11.4669 26.741 11.886 26.741 12.3125L26.7657 19.6102C26.7682 20.0375 26.8828 20.4567 27.0979 20.826C27.313 21.1953 27.6211 21.5017 27.9916 21.7147L34.3203 25.3387C34.6909 25.5519 35.1111 25.6636 35.5387 25.6624C35.9662 25.6612 36.3858 25.5471 36.7552 25.3318L43.0641 21.6622C43.4313 21.4455 43.7355 21.1368 43.9468 20.7665C44.158 20.3962 44.2689 19.9771 44.2685 19.5508L44.2437 12.2532C44.2407 11.827 44.1265 11.409 43.9122 11.0405C43.698 10.6721 43.3912 10.3661 43.0222 10.1527Z" fill="#FFF19F"/>
<path d="M40.1502 12.3606L36.2378 10.1204C36.0089 9.98878 35.7493 9.91993 35.4853 9.92078C35.2212 9.92163 34.9621 9.99215 34.734 10.1252L30.8359 12.3926C30.6082 12.5255 30.4193 12.7157 30.288 12.9443C30.1568 13.1729 30.0877 13.432 30.0876 13.6956L30.103 18.2058C30.1045 18.47 30.1752 18.7292 30.3081 18.9575C30.441 19.1858 30.6315 19.3753 30.8605 19.507L34.7719 21.7467C35.0009 21.8786 35.2606 21.9476 35.5249 21.9469C35.7891 21.9461 36.0485 21.8756 36.2767 21.7426L40.176 19.4745C40.4029 19.3407 40.591 19.1498 40.7216 18.921C40.8522 18.6921 40.9207 18.4331 40.9204 18.1696L40.9051 13.6592C40.9034 13.3958 40.8328 13.1374 40.7004 12.9096C40.568 12.6818 40.3783 12.4926 40.1502 12.3606Z" fill="#FFEB6F"/>
<path d="M3.70802 10.2863L-2.62246 6.66137C-2.99284 6.44846 -3.41284 6.33707 -3.84005 6.33845C-4.26726 6.33983 -4.68655 6.45393 -5.05555 6.66922L-11.3627 10.3378C-11.731 10.5528 -12.0366 10.8605 -12.249 11.2302C-12.4613 11.6 -12.5732 12.019 -12.5732 12.4455L-12.5485 19.7432C-12.5459 20.1706 -12.4314 20.5898 -12.2163 20.959C-12.0012 21.3283 -11.6931 21.6347 -11.3226 21.8477L-4.99393 25.4716C-4.62336 25.6849 -4.20308 25.7965 -3.77555 25.7953C-3.34801 25.7941 -2.92838 25.6801 -2.55903 25.4648L3.74987 21.7952C4.11706 21.5786 4.42131 21.2698 4.63255 20.8995C4.84378 20.5292 4.95469 20.1101 4.95426 19.6838L4.92953 12.3861C4.92643 11.96 4.81208 11.5422 4.59784 11.1739C4.38359 10.8056 4.07686 10.4996 3.70802 10.2863Z" fill="#FFF19F"/>
<path d="M0.836525 12.4942L-3.07593 10.2539C-3.30483 10.1223 -3.5644 10.0534 -3.82844 10.0543C-4.09248 10.0551 -4.35163 10.1256 -4.57969 10.2587L-8.47784 12.5261C-8.70552 12.6589 -8.89443 12.8492 -9.02571 13.0778C-9.15698 13.3064 -9.22606 13.5654 -9.22607 13.8291L-9.21072 18.3394C-9.20926 18.6036 -9.13854 18.8628 -9.00562 19.0911C-8.87271 19.3194 -8.68223 19.5089 -8.45322 19.6406L-4.54186 21.8804C-4.31284 22.0122 -4.05308 22.0812 -3.78885 22.0804C-3.52462 22.0797 -3.26527 22.0092 -3.037 21.8761L0.862227 19.6081C1.08918 19.4742 1.27723 19.2834 1.40781 19.0546C1.53838 18.8257 1.60693 18.5668 1.60668 18.3033L1.59142 13.7929C1.58967 13.5294 1.51909 13.271 1.38667 13.0432C1.25426 12.8154 1.06461 12.6261 0.836525 12.4942Z" fill="#FFEB6F"/>
<path d="M33.2244 -7.15218L26.894 -10.7773C26.5236 -10.9902 26.1036 -11.1016 25.6764 -11.1003C25.2492 -11.0989 24.8299 -10.9848 24.4609 -10.7695L18.1537 -7.10089C17.7854 -6.88593 17.4798 -6.57823 17.2674 -6.20844C17.055 -5.83864 16.9432 -5.41965 16.9431 -4.9932L16.968 2.30446C16.9705 2.73181 17.085 3.15103 17.3001 3.52031C17.5152 3.88958 17.8234 4.19601 18.1938 4.40903L24.5225 8.03297C24.8931 8.24621 25.3134 8.35787 25.7409 8.35666C26.1684 8.35546 26.5881 8.24142 26.9574 8.02609L33.2663 4.35645C33.6335 4.13983 33.9377 3.83108 34.149 3.46078C34.3602 3.09047 34.4711 2.67142 34.4707 2.2451L34.446 -5.05256C34.4428 -5.4786 34.3284 -5.89643 34.1141 -6.26469C33.8999 -6.63295 33.5932 -6.93888 33.2244 -7.15218Z" fill="#FFF19F"/>
<path d="M30.3529 -4.94405L26.4403 -7.18444C26.2114 -7.31603 25.9519 -7.38488 25.6878 -7.38403C25.4238 -7.38318 25.1647 -7.31266 24.9367 -7.1796L21.0385 -4.91222C20.8108 -4.77936 20.6219 -4.58914 20.4906 -4.36051C20.3593 -4.13189 20.2903 -3.87285 20.2903 -3.60922L20.3055 0.901131C20.307 1.16531 20.3777 1.42448 20.5107 1.65279C20.6436 1.88111 20.834 2.07058 21.063 2.20231L24.9745 4.44205C25.2035 4.57388 25.4633 4.64292 25.7275 4.64218C25.9917 4.64145 26.2511 4.57096 26.4794 4.43786L30.3786 2.16983C30.6056 2.03596 30.7936 1.84515 30.9242 1.61627C31.0548 1.3874 31.1233 1.12839 31.1231 0.864891L31.1078 -3.64535C31.106 -3.90883 31.0354 -4.16729 30.903 -4.39509C30.7706 -4.62289 30.581 -4.81213 30.3529 -4.94405Z" fill="#FFEB6F"/>
<path d="M10.5665 -4.94405L6.65394 -7.18444C6.42505 -7.31603 6.16548 -7.38488 5.90146 -7.38403C5.63744 -7.38318 5.37833 -7.31266 5.15029 -7.1796L1.25214 -4.91222C1.02443 -4.77936 0.835505 -4.58914 0.704222 -4.36051C0.572939 -4.13189 0.503879 -3.87285 0.503906 -3.60922L0.51916 0.901131C0.52064 1.16531 0.591368 1.42448 0.72428 1.65279C0.857192 1.88111 1.04766 2.07058 1.27666 2.20231L5.18815 4.44205C5.41715 4.57388 5.67689 4.64292 5.94113 4.64218C6.20537 4.64145 6.46472 4.57096 6.69298 4.43786L10.5922 2.16983C10.8192 2.03596 11.0072 1.84515 11.1378 1.61627C11.2684 1.3874 11.337 1.12839 11.3367 0.864891L11.3214 -3.64535C11.3197 -3.90883 11.2491 -4.16729 11.1167 -4.39509C10.9842 -4.62289 10.7946 -4.81213 10.5665 -4.94405Z" fill="#FFDD0F"/>
<path d="M13.3777 -7.085L7.0472 -10.7098C6.67685 -10.9227 6.25685 -11.0341 5.82965 -11.0328C5.40245 -11.0314 4.98318 -10.9173 4.61421 -10.7019L-1.69293 -7.03338C-2.06125 -6.81842 -2.36682 -6.51073 -2.57923 -6.14093C-2.79163 -5.77114 -2.90346 -5.35215 -2.90356 -4.92569L-2.87883 2.37197C-2.87629 2.79932 -2.76175 3.21853 -2.54665 3.58781C-2.33154 3.95708 -2.02339 4.26351 -1.65292 4.47654L4.67572 8.10048C5.04629 8.31371 5.46657 8.42537 5.89411 8.42416C6.32164 8.42295 6.7413 8.30892 7.11065 8.0936L13.4195 4.42396C13.7867 4.20736 14.091 3.89862 14.3023 3.52831C14.5135 3.158 14.6244 2.73894 14.6239 2.31261L14.5992 -4.98505C14.5961 -5.41115 14.4818 -5.82905 14.2676 -6.19738C14.0533 -6.56571 13.7466 -6.87168 13.3777 -7.085Z" fill="#FFF19F"/>
<path d="M33.2244 27.5904L26.894 23.9656C26.5236 23.7527 26.1036 23.6413 25.6764 23.6427C25.2492 23.644 24.8299 23.7581 24.4609 23.9735L18.1537 27.642C17.7853 27.857 17.4797 28.1648 17.2673 28.5347C17.0549 28.9046 16.9431 29.3237 16.9431 29.7503L16.968 37.0479C16.9705 37.4753 17.085 37.8945 17.3001 38.2638C17.5152 38.633 17.8234 38.9395 18.1938 39.1525L24.5225 42.7764C24.8931 42.9897 25.3134 43.1013 25.7409 43.1001C26.1684 43.0989 26.5881 42.9849 26.9574 42.7695L33.2663 39.0999C33.6335 38.8833 33.9378 38.5746 34.149 38.2042C34.3602 37.8339 34.4711 37.4149 34.4707 36.9886L34.446 29.6909C34.4429 29.2647 34.3286 28.8467 34.1144 28.4783C33.9001 28.1099 33.5933 27.8038 33.2244 27.5904Z" fill="#FFF19F"/>
<path d="M30.3529 29.7537L26.4403 27.5138C26.2114 27.3822 25.9519 27.3134 25.6878 27.3142C25.4238 27.3151 25.1647 27.3856 24.9367 27.5186L21.0385 29.786C20.8108 29.9189 20.6219 30.1091 20.4906 30.3377C20.3593 30.5663 20.2903 30.8254 20.2903 31.089L20.3055 35.5994C20.3071 35.8635 20.3779 36.1225 20.5108 36.3507C20.6437 36.5789 20.8341 36.7683 21.063 36.9L24.9745 39.1398C25.2035 39.2716 25.4633 39.3406 25.7275 39.3399C25.9917 39.3391 26.2511 39.2687 26.4794 39.1356L30.3786 36.8675C30.6056 36.7337 30.7936 36.5429 30.9242 36.314C31.0548 36.0851 31.1233 35.8261 31.1231 35.5626L31.1078 31.0524C31.106 30.7889 31.0354 30.5304 30.903 30.3026C30.7706 30.0748 30.581 29.8856 30.3529 29.7537Z" fill="#FFEB6F"/>
<path d="M10.5433 29.7986L6.63088 27.5588C6.40196 27.4272 6.14238 27.3584 5.87835 27.3592C5.61431 27.36 5.35516 27.4306 5.12709 27.5636L1.22894 29.831C1.00127 29.9639 0.812385 30.1541 0.681107 30.3827C0.54983 30.6113 0.480739 30.8704 0.480713 31.134L0.496098 35.6443C0.497639 35.9084 0.568386 36.1675 0.701297 36.3957C0.834207 36.6239 1.02463 36.8133 1.25357 36.945L5.16495 39.1847C5.39396 39.3165 5.6537 39.3856 5.91794 39.3848C6.18217 39.3841 6.44153 39.3136 6.66979 39.1805L10.569 36.9125C10.796 36.7786 10.9841 36.5878 11.1146 36.3589C11.2452 36.1301 11.3138 35.8711 11.3136 35.6076L11.2986 31.0967C11.2967 30.8333 11.226 30.5749 11.0935 30.3472C10.961 30.1196 10.7714 29.9304 10.5433 29.7986Z" fill="#FFDD0F"/>
<path d="M13.4151 27.6575L7.08455 24.0327C6.7142 23.8198 6.29421 23.7084 5.86701 23.7097C5.43981 23.7111 5.02053 23.8252 4.65157 24.0405L-1.65557 27.7091C-2.02397 27.9241 -2.32959 28.2319 -2.542 28.6018C-2.75441 28.9717 -2.8662 29.3908 -2.86621 29.8173L-2.84148 37.115C-2.83894 37.5423 -2.72439 37.9616 -2.50929 38.3308C-2.29419 38.7001 -1.98604 39.0065 -1.61556 39.2196L4.71308 42.8435C5.08364 43.0567 5.50392 43.1684 5.93146 43.1672C6.359 43.166 6.77865 43.0519 7.14801 42.8366L13.4569 39.167C13.8241 38.9504 14.1284 38.6417 14.3396 38.2713C14.5509 37.901 14.6617 37.482 14.6613 37.0556L14.6365 29.758C14.6336 29.3318 14.5193 28.9138 14.3051 28.5453C14.0908 28.1769 13.784 27.8709 13.4151 27.6575Z" fill="#FFF19F"/>
<path d="M10.4925 -4.94405L6.57997 -7.18444C6.35108 -7.31603 6.09151 -7.38488 5.82748 -7.38403C5.56346 -7.38318 5.30436 -7.31266 5.07631 -7.1796L1.17816 -4.91222C0.950453 -4.77936 0.761531 -4.58914 0.630247 -4.36051C0.498964 -4.13189 0.429904 -3.87285 0.429932 -3.60922L0.445185 0.901131C0.446665 1.16531 0.517393 1.42448 0.650305 1.65279C0.783217 1.88111 0.973687 2.07058 1.20268 2.20231L5.11417 4.44205C5.34317 4.57388 5.60292 4.64292 5.86715 4.64218C6.13139 4.64145 6.39074 4.57096 6.61901 4.43786L10.5182 2.16983C10.7452 2.03596 10.9333 1.84515 11.0638 1.61627C11.1944 1.3874 11.263 1.12839 11.2627 0.864891L11.2474 -3.64535C11.2457 -3.90883 11.1751 -4.16729 11.0427 -4.39509C10.9103 -4.62289 10.7206 -4.81213 10.4925 -4.94405Z" fill="#FFEB6F"/>
<path d="M10.4925 29.7087L6.57997 27.4683C6.35108 27.3367 6.09151 27.2679 5.82748 27.2687C5.56346 27.2696 5.30436 27.3401 5.07631 27.4732L1.17816 29.7405C0.950453 29.8734 0.761531 30.0636 0.630247 30.2923C0.498964 30.5209 0.429904 30.7799 0.429932 31.0436L0.445185 35.5539C0.446665 35.8181 0.517393 36.0773 0.650305 36.3056C0.783217 36.5339 0.973687 36.7233 1.20268 36.8551L5.11417 39.0948C5.34317 39.2267 5.60292 39.2957 5.86715 39.295C6.13139 39.2942 6.39074 39.2237 6.61901 39.0906L10.5182 36.8226C10.7452 36.6887 10.9333 36.4979 11.0638 36.269C11.1944 36.0402 11.263 35.7812 11.2627 35.5177L11.2474 31.0074C11.2457 30.7439 11.1751 30.4855 11.0427 30.2577C10.9103 30.0299 10.7206 29.8406 10.4925 29.7087Z" fill="#FFEB6F"/>
</g>
<defs>
<clipPath id="clip0_451:49418">
<path d="M0 16C0 7.16344 7.16344 0 16 0C24.8366 0 32 7.16344 32 16C32 24.8366 24.8366 32 16 32C7.16344 32 0 24.8366 0 16Z" fill="white"/>
</clipPath>
</defs>
</svg>

<svg width="32" height="32" fill="none" xmlns="http://www.w3.org/2000/svg"><g clip-path="url(#a)"><circle cx="16" cy="16" r="16" fill="#fff"/><path d="m23.517 10.22-6.33-3.626a2.427 2.427 0 0 0-2.433.008l-6.307 3.669a2.441 2.441 0 0 0-1.21 2.107l.024 7.298a2.445 2.445 0 0 0 1.226 2.105l6.328 3.623a2.43 2.43 0 0 0 2.435-.006l6.31-3.67a2.449 2.449 0 0 0 1.204-2.111l-.025-7.298a2.446 2.446 0 0 0-1.222-2.1Z" fill="#FFF19F"/><path d="m20.646 12.427-3.912-2.24a1.5 1.5 0 0 0-1.504.005l-3.898 2.267a1.509 1.509 0 0 0-.748 1.303l.015 4.51a1.51 1.51 0 0 0 .757 1.301l3.912 2.24a1.5 1.5 0 0 0 1.505-.004l3.899-2.268a1.513 1.513 0 0 0 .744-1.306l-.015-4.51a1.512 1.512 0 0 0-.755-1.298Z" fill="#FFDD0F"/><path d="m18.872 13.792-2.419-1.385a.927.927 0 0 0-.929.003l-2.409 1.402a.933.933 0 0 0-.462.805l.01 2.787a.934.934 0 0 0 .467.804l2.418 1.384a.927.927 0 0 0 .93-.002l2.41-1.402a.935.935 0 0 0 .46-.806l-.01-2.788a.935.935 0 0 0-.466-.802Z" fill="#FFDD0F"/><path d="m43.022 10.153-6.33-3.625a2.428 2.428 0 0 0-2.433.008l-6.308 3.668a2.44 2.44 0 0 0-1.21 2.108l.025 7.298a2.444 2.444 0 0 0 1.226 2.105l6.328 3.624a2.43 2.43 0 0 0 2.435-.007l6.31-3.67a2.45 2.45 0 0 0 1.204-2.111l-.025-7.298a2.446 2.446 0 0 0-1.222-2.1Z" fill="#FFF19F"/><path d="m40.15 12.36-3.912-2.24a1.5 1.5 0 0 0-1.504.005l-3.898 2.268a1.509 1.509 0 0 0-.748 1.303l.015 4.51a1.511 1.511 0 0 0 .757 1.301l3.912 2.24a1.5 1.5 0 0 0 1.505-.004l3.899-2.268a1.514 1.514 0 0 0 .744-1.305l-.015-4.51a1.511 1.511 0 0 0-.755-1.3Z" fill="#FFEB6F"/><path d="m3.708 10.286-6.33-3.625a2.427 2.427 0 0 0-2.434.008l-6.307 3.669a2.442 2.442 0 0 0-1.21 2.107l.024 7.298a2.445 2.445 0 0 0 1.226 2.105l6.33 3.624a2.429 2.429 0 0 0 2.434-.007l6.309-3.67a2.448 2.448 0 0 0 1.204-2.111l-.024-7.298a2.446 2.446 0 0 0-1.222-2.1Z" fill="#FFF19F"/><path d="m.837 12.494-3.913-2.24a1.5 1.5 0 0 0-1.504.005l-3.898 2.267a1.508 1.508 0 0 0-.748 1.303l.015 4.51a1.51 1.51 0 0 0 .758 1.302l3.911 2.24a1.5 1.5 0 0 0 1.505-.005l3.9-2.268a1.514 1.514 0 0 0 .744-1.305l-.016-4.51a1.512 1.512 0 0 0-.754-1.299Z" fill="#FFEB6F"/><path d="m33.224-7.152-6.33-3.625a2.429 2.429 0 0 0-2.433.007L18.154-7.1a2.441 2.441 0 0 0-1.21 2.107l.024 7.297a2.444 2.444 0 0 0 1.226 2.105l6.329 3.624a2.43 2.43 0 0 0 2.434-.007l6.31-3.67a2.449 2.449 0 0 0 1.204-2.11l-.025-7.299a2.447 2.447 0 0 0-1.222-2.1Z" fill="#FFF19F"/><path d="m30.353-4.944-3.913-2.24a1.5 1.5 0 0 0-1.503.004l-3.899 2.268a1.509 1.509 0 0 0-.748 1.303L20.305.9a1.51 1.51 0 0 0 .758 1.301l3.912 2.24a1.501 1.501 0 0 0 1.504-.004l3.9-2.268a1.513 1.513 0 0 0 .744-1.305l-.015-4.51a1.513 1.513 0 0 0-.755-1.299Z" fill="#FFEB6F"/><path d="m10.566-4.944-3.912-2.24a1.5 1.5 0 0 0-1.504.004L1.252-4.912A1.508 1.508 0 0 0 .504-3.61L.519.9a1.51 1.51 0 0 0 .758 1.301l3.911 2.24a1.5 1.5 0 0 0 1.505-.004l3.9-2.268a1.513 1.513 0 0 0 .744-1.305l-.016-4.51a1.511 1.511 0 0 0-.755-1.299Z" fill="#FFDD0F"/><path d="m13.378-7.085-6.33-3.625a2.428 2.428 0 0 0-2.434.008l-6.307 3.669a2.441 2.441 0 0 0-1.21 2.107l.024 7.298a2.444 2.444 0 0 0 1.226 2.105L4.676 8.1a2.43 2.43 0 0 0 2.435-.006l6.308-3.67a2.449 2.449 0 0 0 1.205-2.111l-.025-7.298a2.447 2.447 0 0 0-1.221-2.1ZM33.224 27.59l-6.33-3.624a2.427 2.427 0 0 0-2.433.008l-6.307 3.668a2.44 2.44 0 0 0-1.21 2.108l.024 7.298a2.444 2.444 0 0 0 1.226 2.105l6.329 3.623a2.429 2.429 0 0 0 2.434-.007l6.31-3.67a2.447 2.447 0 0 0 1.204-2.11l-.025-7.298a2.448 2.448 0 0 0-1.222-2.1Z" fill="#FFF19F"/><path d="m30.353 29.754-3.913-2.24a1.5 1.5 0 0 0-1.503.005l-3.899 2.267a1.509 1.509 0 0 0-.748 1.303l.015 4.51a1.511 1.511 0 0 0 .758 1.301l3.912 2.24a1.502 1.502 0 0 0 1.504-.004l3.9-2.269a1.512 1.512 0 0 0 .744-1.304l-.015-4.51a1.513 1.513 0 0 0-.755-1.3Z" fill="#FFEB6F"/><path d="m10.543 29.799-3.912-2.24a1.5 1.5 0 0 0-1.504.005L1.23 29.83a1.509 1.509 0 0 0-.748 1.303l.015 4.51a1.51 1.51 0 0 0 .758 1.301l3.911 2.24a1.5 1.5 0 0 0 1.505-.005l3.899-2.267a1.513 1.513 0 0 0 .745-1.305l-.015-4.511a1.512 1.512 0 0 0-.756-1.298Z" fill="#FFDD0F"/><path d="m13.415 27.657-6.33-3.624a2.428 2.428 0 0 0-2.433.008l-6.308 3.668a2.441 2.441 0 0 0-1.21 2.108l.025 7.298a2.444 2.444 0 0 0 1.225 2.105l6.33 3.623a2.43 2.43 0 0 0 2.434-.006l6.309-3.67a2.447 2.447 0 0 0 1.204-2.111l-.024-7.298a2.446 2.446 0 0 0-1.222-2.1Z" fill="#FFF19F"/><path d="M10.492-4.944 6.58-7.184a1.5 1.5 0 0 0-1.504.004L1.178-4.912A1.508 1.508 0 0 0 .43-3.61L.445.9a1.51 1.51 0 0 0 .758 1.301l3.911 2.24a1.5 1.5 0 0 0 1.505-.004l3.9-2.268a1.512 1.512 0 0 0 .744-1.305l-.016-4.51a1.511 1.511 0 0 0-.755-1.299ZM10.492 29.709l-3.912-2.24a1.5 1.5 0 0 0-1.504.004l-3.898 2.268a1.508 1.508 0 0 0-.748 1.303l.015 4.51a1.51 1.51 0 0 0 .758 1.301l3.911 2.24a1.5 1.5 0 0 0 1.505-.004l3.9-2.268a1.513 1.513 0 0 0 .744-1.305l-.016-4.51a1.511 1.511 0 0 0-.755-1.3Z" fill="#FFEB6F"/></g><defs><clipPath id="a"><path d="M0 16C0 7.163 7.163 0 16 0s16 7.163 16 16-7.163 16-16 16S0 24.837 0 16Z" fill="#fff"/></clipPath></defs></svg>
